svgs/regular/play-pause.svg

<svg xmlns="http://www.w3.org/2000/svg" viewBox="0 0 512 512"><!-- Font Awesome Pro 6.0.0-alpha2 by @fontawesome - https://fontawesome.com License - https://fontawesome.com/license (Commercial License) --><path d="M488 64C474.746 64 464 74.746 464 88V424C464 437.254 474.746 448 488 448S512 437.254 512 424V88C512 74.746 501.254 64 488 64ZM344 64C330.746 64 320 74.746 320 88V424C320 437.254 330.746 448 344 448S368 437.254 368 424V88C368 74.746 357.254 64 344 64ZM32.217 448C39.219 448 46.361 445.695 52.506 440.594L244.529 280.621C259.781 267.748 259.781 244.252 244.529 231.379L52.506 71.406C46.361 66.307 39.217 64 32.217 64C15.713 64 0 76.809 0 96.027V415.973C0 435.189 15.715 448 32.217 448ZM48 130.127L199.094 256L48 381.875V130.127Z"/></svg>

<svg xmlns="http://www.w3.org/2000/svg" viewBox="0 0 512 512"><!--! Font Awesome Pro 6.3.0 by @fontawesome - https://fontawesome.com License - https://fontawesome.com/license (Commercial License) Copyright 2023 Fonticons, Inc. --><path d="M368 88c0-13.3-10.7-24-24-24s-24 10.7-24 24V424c0 13.3 10.7 24 24 24s24-10.7 24-24V88zm144 0c0-13.3-10.7-24-24-24s-24 10.7-24 24V424c0 13.3 10.7 24 24 24s24-10.7 24-24V88zM48 381.8V130.2L199 256 48 381.8zM52.5 71.4c-9.5-7.9-22.8-9.7-34.1-4.4S0 83.6 0 96V416c0 12.4 7.2 23.7 18.4 29s24.5 3.6 34.1-4.4l192-160c7.3-6.1 11.5-15.1 11.5-24.6s-4.2-18.5-11.5-24.6l-192-160z"/></svg>
